symbols/web/hotel_class/materialsymbolsrounded/hotel_class_wght700grad200_40px.svg

<svg xmlns="http://www.w3.org/2000/svg" height="40" width="40"><path d="M18.333 21.042ZM9.625 36.458q-.708.542-1.396.021-.687-.521-.396-1.271l3.292-10.833-8.792-6.333q-.666-.417-.416-1.209.25-.791 1.083-.791h10.75l3.5-11.5q.125-.417.438-.604.312-.188.645-.188.334 0 .646.188.313.187.396.604l3.542 11.5h10.75q.833 0 1.083.791.25.792-.417 1.209l-8.791 6.333 3.375 10.833q.25.75-.417 1.271-.667.521-1.333-.021l-8.792-6.666Zm3.542-7.25 5.166-3.916 5.167 3.916-2.042-6.5 4.75-3.208h-5.75l-2.125-6.542-2.125 6.542h-5.75l4.75 3.208Zm21.416 7.209-2.375-1.792-2.708-8.917 6.042-4.375h2.375q.875 0 1.104.813.229.812-.438 1.271l-4.833 3.416 2.542 8.292q.25.75-.417 1.271-.667.521-1.292.021Zm-9.208-23.709L24 8.042l1-3.459q.083-.416.396-.583.312-.167.687-.167.334 0 .667.167t.417.583l2.458 8.125Z"/></svg>

<svg xmlns="http://www.w3.org/2000/svg" height="40" width="40"><path d="M18.333 21.042ZM9.625 36.458Q8.917 37 8.229 36.479Q7.542 35.958 7.833 35.208L11.125 24.375L2.333 18.042Q1.667 17.625 1.917 16.833Q2.167 16.042 3 16.042H13.75L17.25 4.542Q17.375 4.125 17.688 3.938Q18 3.75 18.333 3.75Q18.667 3.75 18.979 3.938Q19.292 4.125 19.375 4.542L22.917 16.042H33.667Q34.5 16.042 34.75 16.833Q35 17.625 34.333 18.042L25.542 24.375L28.917 35.208Q29.167 35.958 28.5 36.479Q27.833 37 27.167 36.458L18.375 29.792ZM13.167 29.208 18.333 25.292 23.5 29.208 21.458 22.708 26.208 19.5H20.458L18.333 12.958L16.208 19.5H10.458L15.208 22.708ZM34.583 36.417 32.208 34.625 29.5 25.708 35.542 21.333H37.917Q38.792 21.333 39.021 22.146Q39.25 22.958 38.583 23.417L33.75 26.833L36.292 35.125Q36.542 35.875 35.875 36.396Q35.208 36.917 34.583 36.417ZM25.375 12.708 24 8.042 25 4.583Q25.083 4.167 25.396 4Q25.708 3.833 26.083 3.833Q26.417 3.833 26.75 4Q27.083 4.167 27.167 4.583L29.625 12.708Z"/></svg>
